!!!OTL: Mari&auml; Geburt, S.21f
!!!id: L0016
**kern
*clefG2
*k[f#]
*G:
{4d
=1
4.g
8g
8b
8a
8g
8a
=2
4b
8g
8a
8b
8cc
8g
4b}
8r
=3
{8d
=4
4.g
8g
8b
4a
8f#
=5
*M3/4
2g}
4r
=6
{4d
=7
*M4/4
4.g
8g
8b
8a
8g
8a
=8
4b
8g
8a
8b
8cc
8g
4b}
8r
=9
{8d
=10
4.g
8g
8b
4a
8f#
=11
*M3/4
2g}
4r
=12
{8g
=13
8g
2dd
4cc
=14
4.b
8a
8g
8cc
=15
2cc
4b
=16
2a}
4r
=17
{2b
4a
=18
4.g
8f#
8g
8b
=19
2a
4g
=20
2f#}
4r
=21
{2g
4f#
=22
2e
4r
=23
2f#
4e
=24
2d}
4r
=25
{4g
4a
4b
=26
8cc
8b
8b
4a
8f#
=27
[2.g
=28
4g]}
2r
=29
{8g
=30
8g
2dd
4cc
=31
4.b
8a
8g
8cc
=32
2cc
4b
=33
2a}
4r
=34
{2b
4a
=35
4.g
8f#
8g
8b
=36
2a
4g
=37
2f#}
4r
=38
{2g
4f#
=39
2e
4r
=40
2f#
4e
=41
2d}
4r
=42
{4g
4a
4b
=43
8cc
8b
8b
4a
8f#
=44
[2.g
=45
4g]}
2r
==
*-
!!!minrhy: 8
!!!meters: 4/4 3/4]  ZZ[12
!!!cut: Mari&auml; Geburt, S.21f
!!!reg: Luxemburg
!!!trd: Die Luxemburger Volkslieder &auml;lterer Zeit, Luxemburg 1904 posth.
!!!rhy1: X_  X_.XXXXX  X_(XXX)X_0
!!!rhy2: X  X_.XXX_X  X__0_
!!!key: L0016  08  G 4/4 3/4]  ZZ[12
!!!mod: HEPTATONIK IONISCH]  AMBITUS[8
!!!kad: 31312-7-512-7-51
!!!akz: 1333_131_1333_131_5342_312-7_1-6-7-5_1411_5342_312-7_1-6-7-5_1411_
!!!fot: 'a__aw_a__aw_b__bs"c__d__b__bs"c__d__
!!!for: 'a__b__a__b__c__c__d__e__c__c__d__e__
!!!fok: '~a_^a_~a_^a_\__Sd_\__^__\__Sd_\__^__
!! PHRAS[VORWIEGEND VOLLTAKTIG]
!!!fkt: geistliches, religiöses Lied
!! FONTAINE, Ed.:
!! PR[13] 2K[5] 2G[18] 3K[0] 3G[4] 4A[11] 4Ü[0] 5A[0] 6K[0] 6G[0]
!! 7K[0] 7G[0] 8A[0] MEHR[0] SI[38] ABS[55] SR[24] SP[15]
!! ST[18] 2k[9] 2g[35] 3k[2] 3g[0] 4d[4] 4ü[0] 5d[0] 6k[0] 6g[0]
!! 7k[0] 7g[0] 8d[0] mehr[0] si[49] dm[-11] sr[44] sp[5]
!! 1F[38] 2F[39] 3F[14] 4F[3] LF[0] 2P[3] 3P[3] 4P[0] TRI[0] DF[6] AB[64]
!! TF[0] U3K[0] U3[0] U4[0] U4Ü[0] U5[5] U6K[0] U6[2] U7K[0] U7[2]
!! N1[23] N2K[0] N2[27] N3K[0] N3[29] N4[9] N4Ü[0] N5[4] N6K[0] N6[0]
!!!n7k: 0] N7[0] O1[0] O2K[0] O2[0] O3K[0] O3[0] HÖ[0
!!!RNB: symbol: &auml;      = a umlaut  (UTF-8: Å„)
